X:1
T:Memento Domine David - Anerio
T:#
%%score [ 1 2 { 3 | 4 } 5 ]
L:1/8
Q:1/4=140
M:4/4
K:C
V:1 treble nm="Soprano" snm="S"
V:2 treble nm="Alto" snm="A"
V:3 treble-8 nm="Tenor" snm="T"
V:4 treble 
V:5 treble nm="Bass" snm="B"
V:1
 z20 | z26 ||[K:Bb][K:treble][Q:1/4=200][Q:1/4=200][Q:1/4=200][Q:1/4=200] B8 B4 B4 | c8 B4 (d4- | %4
w: ||Si- cut ju-|ra- vit Do\-|
 d2 c2 B8) A4 | B4 B8 B4 |[M:4/2] B4 B4 B8 | G16- | G8 (B6 A2 | G2 F2 G8 ^F4) | !fermata!G16 || %11
w: * * * mi-|no, vo- tum|vo- vit De-|o|* Ja\- *||cob:|
[Q:1/4=140][Q:1/4=140][Q:1/4=140][Q:1/4=140] z24 | z18 || %13
w: ||
[M:4/2][Q:1/4=200][Q:1/4=200][Q:1/4=200][Q:1/4=200] G8 G6 G2 | G4 _A8 G4 | z4 B8 G4 | c8 B8- | %17
w: Si de- de-|ro so- mnum|o- cu-|lis me\-|
 B8 G8 | z4 G8 G4 | E4 C4 _A8 | G16 | F6 F2 F4 F4 | G16 | !fermata!G16 || %24
w: * is,|et pal-|pe- bris me-|is|dor- ma- ta- ti-|o-|nem.|
[Q:1/4=140][Q:1/4=140][Q:1/4=140][Q:1/4=140] z24 | z18 || %26
w: ||
[M:4/2][Q:1/4=200][Q:1/4=200][Q:1/4=200][Q:1/4=200] d8 d4 d4 | e12 d4 | d8 f8 | (e4 d2 c2 d6 c2 | %30
w: Ec- ce au-|di- vi-|mus e-|am * * * *|
 B4) e4 c8- | c4 d4 d8 | z4 d4 c6 B2 | A4 G4 ^F8 | z4 B4 (e2 d2 c2 B2 | A16) | B4 (G8 ^F4) | %37
w: * in E\-|* phra- ta:|in- ve- ni-|mus e- am|in cam\- * * *||pis sil\- *|
 !fermata!G16 ||[Q:1/4=140][Q:1/4=140][Q:1/4=140][Q:1/4=140] z24 | z18 || %40
w: vae.|||
[M:3/1][Q:1/4=400]"^Quartet"[Q:1/4=400][Q:1/4=400][Q:1/4=400] B16 B8 | B12 B4 B8 || %42
w: Sur- ge|Do- mi- ne|
[Q:1/4=200] B8 c8- | c4 B4 d8 | c16 | B8 B8- | B4 B4 B8 | %47
w: in re\-|* qui- em|tu-|am, tu|* et ar-|
[M:4/2][Q:1/4=200][Q:1/4=200][Q:1/4=200][Q:1/4=200] B4 B4 B4 B4 | B4 B4 B8 | G16- | G16 | (B8 A8) | %52
w: ca san- cti- fi-|ca- ti- o-|nis||tu\- *|
 !fermata!G16 ||[Q:1/4=140][Q:1/4=140][Q:1/4=140][Q:1/4=140] z24 | z18 || %55
w: ae.|||
[M:4/2][Q:1/4=200]"^Full"[Q:1/4=200][Q:1/4=200][Q:1/4=200] B6 B2 B4 B4 | c4 B4 A8 | B16- | B16 | %59
w: Pro- pter Da- vid|ser- vum tu-|um,||
 z4 B8 B4 | B8 B8- | B8 z4 B4- | B2 B2 G4 B4 B4 | A8 G4 B4 | G4 (B8 A4- | A2 G2 G8 ^F4) | %66
w: non a-|ver- tas|* fa\-|* ci- em Chri- sti|tu- i, Chri-|sti tu\- *||
 !fermata!G16 ||[Q:1/4=140][Q:1/4=140][Q:1/4=140][Q:1/4=140] z24 | z18 || %69
w: i.|||
[M:4/2][Q:1/4=200][Q:1/4=200][Q:1/4=200][Q:1/4=200] B8 c4 B4 | B6 B2 B4 d4- | d2 d2 d4 e8 | %72
w: Si- cu- sto-|di- e- rint fi\-|* li- i tu-|
 d8 z4 c4- | c4 =B4 c4 d4- | d4 (B8 A4) | B8 z4 d4 | d4 d4 c6 c2 | =B4 c4 B8 | _B8 A4 A4 | %79
w: i te\-|* sta- men- tum|* me\- *|um, et|te- sti- mo- ni-|a me- a|haec, quae do-|
 B4 B4 A4 A4 | d8 B4 G4 | d8 !fermata!d16 ||[Q:1/4=140][Q:1/4=140][Q:1/4=140][Q:1/4=140] z24 | %83
w: ce- bo e- os,|do- ce- bo|e- os.||
 z18 ||[M:4/2][Q:1/4=200][Q:1/4=200][Q:1/4=200][Q:1/4=200] d6 d2 d4 f4 | e4 d4 c6 c2 | c4 B4 c8 | %87
w: |Quo- ni- am e-|le- git Do- mi-|nus Si- on:|
 c8 c4 d4 | B8 B8- | B8 z8 | z16 | z4 c4 B6 B2 | B4 B4 B8 | (G8 B6 A2) | G4 (B8 G4- | %95
w: e- le- git|e- am|||in ha- bi-|ta- ti- o-|nem * *|* si\- *|
 G4 ^F4) !fermata!G16 ||[Q:1/4=140][Q:1/4=140][Q:1/4=140][Q:1/4=140] z24 | z18 || %98
w: * * bi.|||
[M:4/2][Q:1/4=200][Q:1/4=200][Q:1/4=200][Q:1/4=200] z16 | z16 | z16 | z16 | z16 | z16 | z16 | %105
w: |||||||
[M:4/2] z12 z4 | z16 | z16 | z16 | z16 | z24 |[Q:1/4=140][Q:1/4=140][Q:1/4=140][Q:1/4=140] z24 | %112
w: |||||||
 z18 ||[M:4/2][Q:1/4=200]"^Full"[Q:1/4=200][Q:1/4=200][Q:1/4=200] B8 B4 B4 | B8 B4 B4- | %115
w: |Il- luc pro-|du- cam cor\-|
 B4 B4 (c8 | B6 c2 d8 | c8) d8- | d8 z4 B4 | c4 c2 B2 A8 | B8 G4 B4 | A8 B4 d4 | e4 e2 d2 c8 | %123
w: * nu Da\-||* vid,|* pa-|ra- vi lu- cer-|nam Chri- sto|me- o, pa-|ra- vi lu- cer-|
 d4 B4 G4 (G4- | G4 ^F4) !fermata!G16 ||[Q:1/4=140][Q:1/4=140][Q:1/4=140][Q:1/4=140] z24 | z18 || %127
w: nam Chri- sto me\-|* * o.|||
[M:4/2][Q:1/4=200][Q:1/4=200][Q:1/4=200][Q:1/4=200] d12 d4 | d16 | e8 d8 | z4 B4 G4 B4 | %131
w: Glo- ri-|a|Pa- tri,|et Fi- li-|
 A4 A4 B4 B4 | c16 | B12 B4 | B8 G8 | B4 (d6 c2 B4- | B4 G8 ^F4) | !fermata!G16 || %138
w: o, et Fi- li-|o,|et Spi-|ri- tu-|i san\- * *||cto.|
[Q:1/4=140][Q:1/4=140][Q:1/4=140][Q:1/4=140] z24 | z18 |] %140
w: ||
V:2
 z20 | z26 ||[K:Bb][K:treble] F4 F4 F4 (G4- | G2 F2 F4) G8 | F12 F4 | F8 z4 G4- | %6
w: ||Si- cut ju- ra\-|* * * vit|Do- mi-|no, vo\-|
[M:4/2] G4 F4 G4 D4 | z4 C8 =B,4 | C4 G,4 G4 F4 | (E8 D8) | !fermata!=B,16 || z24 | z18 || %13
w: * tum vo- vit,|vo- tum|vo- vit De- o|Ja\- *|cob:|||
[M:4/2] E8 E6 E2 | E4 E8 E4 | F12 E4 | _A4 (G6 F2 E4- | E4 D4) E4 E4- | E4 E4 E4 E4 | E8 E4 E4- | %20
w: Si de- de-|ro so- mnum|o- cu-|lis me\- * *|* * is, et|* pal- pe- bris|me- is dor\-|
 E4 E4 E8 | C16 | E16 | !fermata!D16 || z24 | z18 ||[M:4/2] F8 F4 F4 | G12 F4 | F16 | B12 F4 | %30
w: * ma- ta-|ti-|o-|nem.|||Ec- ce au-|di- vi-|mus|e- am|
 G8 F8- | F4 F4 F8 | z4 B4 A6 G2 | F4 G4 A4 A4 | (B2 A2 G2 F2 G4) C4 | C4 (c2 B2 A2 G2 F4- | %36
w: in E\-|* phra- ta:|in- ve- ni-|mus e- am in|cam\- * * * * pis,|in cam\- * * * *|
 F4) D4 D8 | !fermata!D16 || z24 | z18 ||[M:3/1] F16 G8 | F12 F4 F8 || G16 | G12 F4 | _A8 A8 | %45
w: * pis sil-|vae.|||Sur- ge|Do- mi- ne|in|re- qui-|em tu-|
 F16 | z4 B,4 D8 |[M:4/2] G8 G4 G4 | G4 F4 G4 D4 | E4 B,4 C4 G,2 G,2 | C4 D4 E4 C4 | %51
w: am,|tu et|ar- ca san-|cti- fi- ca- ti-|o- nis, san- cti- fi-|ca- ti- o- nis|
 (B,2 G,2 G6 ^F=E F4) | !fermata!D16 || z24 | z18 ||[M:4/2] z8 G8- | G4 G4 F8 | B,4 E4 D4 (E4- | %58
w: tu\- * * * * *|ae.|||Pro\-|* pter Da-|vid ser- vum tu\-|
 E2 DC D4) G8 | z4 F8 G4 | F8 F4 F4- | F2 F2 D4 F4 (G4- | G2 F2 E4) (B,6 C2 | D8) G,4 G4 | %64
w: * * * * um,|non a-|ver- tas fa\-|* ci- em Chri- sti|* * * tu\- *|* i, Chri-|
 B4 G8 (E4- | E2 DC B,2 C2 D8- | !fermata!D16) || z24 | z18 ||[M:4/2] F8 F4 F4 | G6 G2 G4 G4- | %71
w: sti tu- i.|||||Si- cu- sto-|di- e- rint fi\-|
 G2 A2 B4 G8 | G8 G8- | G4 G4 C4 F4- | F4 =E4 F8- | F8 z4 B4 | B4 B4 G6 G2 | G4 F4 G8 | G8 ^F4 F4 | %79
w: * li- i tu-|i te\-|* sta- men- tum|* me- um,|* et|te- sti- mo- ni-|a me- a|haec, quae do-|
 G4 G4 ^F8 | =F4 F4 G4 G4- | G4 ^F4 !fermata!G16 || z24 | z18 ||[M:4/2] F6 F2 F4 F4 | G4 B4 A6 A2 | %86
w: ce- bo e-|os, do- ce- bo|* e- os.|||Quo- ni- am e-|le- git Do- mi-|
 A4 G4 A8 | z4 A4 A4 B4 | G8 F4 F4- | F4 G6 G2 G4 | A4 B8 G4- | G4 F4 G4 G4 | G6 G2 G4 F4 | %93
w: nus Si- on:|e- le- git|e- am in|* ha- bi- ta-|ti- o- nem|* si- bi, in|ha- bi- ta- ti-|
 E4 E4 D8- | D16 | D8 !fermata!D16 || z24 | z18 ||[M:4/2]"^Quartet" G6 G2 G4 G4- | G4 G4 G4 G4 | %100
w: o- nem si\-||* bi.|||Vi- du- am e\-|* ius be- ne-|
 G16 | F8 B4 B4 | B8 F8- | F16 | F8 z8 |[M:3/2] A6 A2 G4 | ^F8 F4 z4 | z4 B2 B2 B4 G4 | %108
w: di-|cens be- ne-|di- cam:|||pau- pe- res|e- ius|sa- tu- ra- bo,|
 z8 B2 B2 B4 | G4 (B6 A2 G4- | G4) ^F4 !fermata!G16 | z24 | z18 ||[M:4/2] z16 | z8 z4 F4 | %115
w: sa- tu- ra-|bo pa\- * *|* ni- bus.||||Il-|
 G4 B4 A8 | D8 B8 | G4 A4 B8 | F8 G4 G2 F2 | =E8 F8 | (D2 _E2 F2 D2 E4) G4- | G4 ^F4 G8 | %122
w: luc pro- du-|cam cor-|nu Da- vid,|pa- ra- vi lu-|cer- nam|Chri\- * * * * sto|* me- o,|
 z4 G4 A4 A2 G2 | F4 G4 E4 D4 | D8 !fermata!D16 || z24 | z18 ||[M:4/2] F12 F4 | F16 | G8 F4 F4 | %130
w: pa- ra- vi lu-|cer- nam Chri- sto|me- o.|||Glo- ri-|a|Pa- tri, et|
 E12 E4 | F8 x8 | z4 F8 F4 | F8 D8 | F8 E8 | D16- | D16 | !fermata!D16 || z24 | z18 |] %140
w: Fi- li-|o,|et Spi-|ri- tu-|i san-|cto.|||||
V:3
[K:Bb]"^Felice Anerio\n(c. 1560-1614)""^Memento Domine David""^Psalm 132 (131 Vulgate)" F2 G2 B2 c2 B2 B2 (A2 G2) B4 | %1
w: Me- men- to Do- mi- ne Da\- * vid,|
 B2 B2 B2 B2 B2 B2 B2 B2 G2 B2 (A2 G4) || d8 d4 d4 | (c6 d2 e4) B4 | d8 c8 | B16- | %6
w: et o- mnis man- su- e- tu- di- nis e- ius. *|Si- cut ju-|ra\- * * vit|Do- mi-|no,|
[M:4/2][K:treble-8] B16 | e12 d4 | e4 B4 e4 d4 | (c6 B2 A8) | !fermata!G16 || %11
w: |vo- tum|vo- vit De- o|Ja\- * *|cob:|
 F2 G2 B2 c2 B8 A2 G2 B4 | B8 G2 B2 A2 G4 ||[M:4/2][K:treble-8] B8 c6 c2 | c4 c8 B4 | d12 c4 | %16
w: Si in- tro- i- ero~in~tabernaculum~do- mus me- ae:|si~ascendero~in~lectum stra- ti me- i.|Si de- de-|ro so- mnum|o- cu-|
 e4 (e6 f2 g2 e2 | f8) B8 | z4 B8 B4 | c4 c4 c8 | B16 | _A6 A2 A4 A4 | G8 (c8- | %23
w: lis me\- * * *|* is,|et pal-|pe- bris me-|is|dor- ma- ta- ti-|o- nem.|
 c4 =B2 A2 !fermata!B8) || F2 G2 B2 c2 B8 A2 G2 B4 | B8 G2 B2 A2 G4 || %26
w: |et re- qui- em temporibus~meis,~donec~inveniam~locum Do- mi- no,|tabernaculum De- o Ja- cob.|
[M:4/2][K:treble-8] B8 B4 B4 | B12 B4 | B8 c8 | B16 | B8 A8- | A4 B4 B8 | z4 B4 f4 c4 | d4 e4 d8 | %34
w: Ec- ce au-|di- vi-|mus e-|am|in E\-|* phra- ta:|in- ve- ni-|mus e- am|
 z4 G4 (c2 B2 A2 G2 | F4) F4 (f6 e2 | d2 c2 B4) (A8 | !fermata!G16) || F2 G2 B2 c2 B8 (A2 G2) B4 | %39
w: in cam\- * * *|* pis sil\- *|* * * vae.||In- tro- i- bi- mus~in~tabernaculum e\- * ius:|
 B8 G2 B2 A2 G4 ||[M:3/1][K:treble-8] B16 E8 | B12 B4 B8 || G8 (c6 d2 | e4) d4 d8 | e4 (f8 e4- | %45
w: adorabimus~in~loco~ubi~steterunt pe- des e- ius.|Sur- ge|Do- mi- ne|in re\- *|* qui- em|tu- am, *|
 e4 d2 c2 d8- | d8) g4 f4 |[M:4/2][K:treble-8] e8 e4 B4 | e4 d4 e4 B4 | c4 d2 d2 e4 d4 | e4 B4 c8 | %51
w: |* tu et|ar- ca san-|cti- fi- ca- ti-|o- nis, san- cti- fi-|ca- ti- o-|
 G8 D8 | !fermata!G16 || F2 G2 B2 c2 B8 A2 G2 B4 | B8 G2 B2 A2 G4 ||[M:4/2][K:treble-8] z8 e6 e2 | %56
w: nis tu-|ae.|Sa- cer- do- tes tui~induantur~ju- sti- ti- am,|et~sancti~tu- i ex- sul- tent.|Pro- pter|
 e4 e4 c8 | g16 | f8 e8 | z4 d8 e4 | d8 d8 | z4 B6 B2 G4 | B4 c4 (d2 G2 g4- | g4 ^f4) g4 e4- | %64
w: Da- vid ser-|vum|tu- um,|non a-|ver- tas|fa- ci- em|Chri- sti tu\- * *|* * i, Chri\-|
 e4 B8 (c4- | c2 BA G2 A2 B2 AG A4) | !fermata!G16 || F2 G2 B2 c2 B8 A2 G2 B4 | B8 G2 B2 A2 G4 || %69
w: * sti tu\-||i.|Ju- ra- vit Do- minus~David~veritatem,~et~non~frustrabi- tur e- am:|De~fructu~ventris~tui~ponam~super se- dem tu- am.|
[M:4/2][K:treble-8] d8 c4 d4 | d6 d2 d4 B4- | B2 A2 G8 c4- | c4 =B4 e8- | e4 d4 (f2 e2 d2 c2 | %74
w: Si- cu- sto-|di- e- rint fi\-|* li- i tu\-|* i te\-|* sta- men\- * * *|
 B4) B4 c8 | d8 z4 f4 | f4 g4 e6 e2 | d4 c4 d8 | d8 d4 d4 | B4 G4 d8 | A8 G4 B4 | %81
w: * tum me-|um, et|te- sti- mo- ni-|a me- a|haec, quae do-|ce- bo e-|os, do- ce-|
 B4 A4 !fermata!G16 || F2 G2 B2 c2 B8 A2 G2 B4 | B8 G2 B2 A2 G4 ||[M:4/2][K:treble-8] B6 B2 B4 d4 | %85
w: bo e- os.|Et fi- li- i eorum~usque~in sae- cu- lum|sedebunt~super se- dem tu- am.|Quo- ni- am e-|
 c4 B4 f6 f2 | f4 g4 f8 | z4 f4 f4 f4 | e8 d8 | d8 e6 e2 | e4 d4 d4 d4 | (c8 d8) | G8 z8 | %93
w: le- git Do- mi-|nus Si- on:|e- le- git|e- am|in ha- bi-|ta- ti- o- nem|si\- *|bi,|
 c8 B4 B4 | B4 G4 B4 B4 | A8 !fermata!G16 || F2 G2 B2 c2 B8 A2 G2 B4 | B8 G2 B2 A2 G4 || %98
w: in ha- bi-|ta- ti- o- nem|si- bi.|~Haec re- qui- es mea~in~saeculum sae- cu- li:|hic~habitabo,~quoniam~e- le- gi e- am.|
[M:4/2][K:treble-8] =B6 B2 B4 c4- | c4 =B4 e4 e4 | e8 B8- | B8 z4 f4 | f4 (f2 e2 d2 c2 B4- | %103
w: Vi- du- am e\-|* ius be- ne-|di- cens|* be-|ne- di\- * * * *|
 B4 A2 G2 A8) | B8 z8 |[M:3/2][K:treble-8] c6 c2 c4 | A8 A4 z4 | z8 B2 B2 B2 G2 | B4 A4 G8 | %109
w: |cam:|pau- pe- res|e- ius|sa- tu- ra- bo|pa- ni- bus,|
 e2 e2 e8 d4 | d6 d2 !fermata!=B16 | F2 G2 B2 c2 B8 A2 G2 B4 | B8 G2 B2 A2 G4 || %113
w: sa- tu- ra- bo|pa- ni- bus.|Sa- cer- do- tes eius~induam~sa- lu- ta- ri,|et~sancti~eius~exsultatione ex- sul- ta- bunt.|
[M:4/2][K:treble-8] z8 B8 | e4 g4 f4 d4 | e4 d4 f8- | f16 | (e8 f8) | z4 B4 e4 e2 d2 | c8 (d6 c2 | %120
w: Il-|luc pro- du- cam|cor- nu Da\-||vid, *|pa- ra- vi lu-|cer- nam *|
 B8) c4 G4 | d12 B4 | z4 B4 f4 f2 e2 | d4 e4 B4 B4 | A8 !fermata!G16 || F2 G2 B2 c2 B8 A2 G2 B4 | %126
w: * Chri- sto|me- o,|pa- ra- vi lu-|cer- nam Chri- sto|me- o.|~I- ni- mi- cos eius~induam~confu- si- o- ne:|
 B8 G2 B2 A2 G4 ||[M:4/2][K:treble-8] B12 B4 | B8 B8 | (G2 A2 B2 c2 d8) | G8 B4 G4 | A4 c4 e4 d4 | %132
w: super~ipsum~autem~efflorebit~sanctifica- ti- o me- a.|Glo- ri-|a Pa-|tri, * * * *|et Fi- li-|o, et Fi- li-|
 f4 c4 f4 c4 | d8 f4 f4 | d4 d4 B4 (G4- | G2 A2 B6 c2 d4- | d2 B2 d6 cB A4) | !fermata!=B16 || %138
w: o, et Spi- ri-|tu- i, Spi-|ri- tu- i san\-|||cto.|
 F2 G2 B2 c2 B8 A2 G2 B4 | B8 G2 B2 A2 G4 |] %140
w: Si- cut e- rat in~principio,~et~nunc, et sem- per:|et~in~saecula~saecu- lo- rum. A- men.|
V:4
[K:Bb] x20 | x26 || x16 | x16 | x16 | x16 |[M:4/2] x16 | x16 | x16 | x16 | x16 || x24 | x18 || %13
w: |||||||||||||
[M:4/2] x16 | x16 | x16 | x16 | x16 | x16 | x16 | x16 | x16 | x16 | x16 || x24 | x18 || %26
w: |||||||||||||
[M:4/2] x16 | x16 | x16 | x16 | x16 | x16 | x16 | x16 | x16 | x16 | x16 | x16 || x24 | x18 || %40
w: ||||||||||||||
[M:3/1][K:treble-8] d16 e8 | d12 d4 d8 || d8 (e6 d2 | c4) G4 B8 | _A16 | B16 | G12 D4 | %47
w: Sur- ge|Do- mi- ne|in re\- *|* qui- em|tu-|am,|tu et|
[M:4/2][K:treble-8] E8 E8 | z16 | z4 G4 c4 =B4 | c4 G4 g4 e4 | d16 | !fermata!=B16 || x24 | x18 || %55
w: ar- ca||san- cti- fi-|ca- ti- o- nis|tu-|ae.|||
[M:4/2] x16 | x16 | x16 | x16 | x16 | x16 | x16 | x16 | x16 | x16 | x16 | x16 || x24 | x18 || %69
w: ||||||||||||||
[M:4/2] x16 | x16 | x16 | x16 | x16 | x16 | x16 | x16 | x16 | x16 | x16 | x16 | x24 || x24 | x18 || %84
w: |||||||||||||||
[M:4/2] x16 | x16 | x16 | x16 | x16 | x16 | x16 | x16 | x16 | x16 | x16 | x24 || x24 | x18 || %98
w: ||||||||||||||
[M:4/2][K:treble-8] d6 d2 d4 e4- | e4 d4 z8 | B4 B4 e8 | d16 | d4 d4 d8 | c16 | z16 | %105
w: Vi- du- am e\-|* ius|be- ne- di-|cens|be- ne- di-|cam:||
[M:3/2][K:treble-8] f6 f2 e4 | d8 d4 z4 | d2 d2 d6 B2 e4- | e4 d4 e4 B2 B2 | B4 G4 B8- | %110
w: pau- pe- res|e- ius|sa- tu- ra- bo pa\-|* ni- bus, sa- tu-|ra- bo pa\-|
 B4 A4 !fermata!G16 | x24 | x18 ||[M:4/2] x16 | x16 | x16 | x16 | x16 | x16 | x16 | x16 | x16 | %122
w: * ni- bus.||||||||||||
 x16 | x16 | x24 || x24 | x18 ||[M:4/2][K:treble-8] z16 | z16 | B12 B4 | B16 | c8 B4 B4 | A12 A4 | %133
w: |||||||Glo- ri-|a|Pa- tri, et|Fi- li-|
 B8 z8 | z4 B8 B4 | B8 G8 | B8 A8 | !fermata!G16 || x24 | x18 |] %140
w: o,|et Spi-|ri- tu-|i san-|cto.|||
V:5
 z20 | z26 ||[K:Bb][K:bass] B,8 B,4 B,4 | A,8 G,8 | (B,8 F,6) F,2 | B,,8 E,8- | %6
w: ||Si- cut ju-|ra- vit|Do\- * mi-|no, vo\-|
[M:4/2] E,4 D,4 E,4 B,,4 | (C,2 D,2 E,2 F,2 G,8) | C,4 E,8 B,,4 | (C,8 D,8) | !fermata!G,16 || %11
w: * tum vo- vit|De\- * * * *|o, De- o|Ja\- *|cob:|
 z24 | z18 ||[M:4/2] E,8 C,6 C,2 | C4 _A,8 E,4 | B,12 C4 | C,8 (E,8 | B,,8) E,8 | E,12 E,4 | %19
w: ||Si de- de-|ro so- mnum|o- cu-|lis me\-|* is,|et pal-|
 _A,4 A,4 A,8 | E,16 | F,6 F,2 F,4 F,4 | C,16 | !fermata!G,16 || z24 | z18 || %26
w: pe- bris me-|is|dor- ma- ta- ti-|o-|nem.|||
[M:4/2] B,,8 B,,4 B,,4 | E,12 B,,4 | B,,4 B,8 A,4 | (G,8 D,8) | (E,8 F,8- | F,4) B,,4 B,,8- | %32
w: Ec- ce au-|di- vi-|mus e- am|in *|E\- *|* phra- ta:|
 B,,8 z8 | z8 z4 D,4 | (G,2 F,2 E,2 D,2 C,4) C,4 | (C2 B,2 A,2 G,2 F,2 E,2 D,2 C,2 | %36
w: |in|cam\- * * * * pis|sil\- * * * * * * *|
 B,,6 C,2 D,8) | !fermata!G,16 || z24 | z18 ||[M:3/1] z24 | z24 || z16 | z16 | z16 | z16 | z16 | %47
w: |vae.||||||||||
[M:4/2] z16 | z16 | z16 | z16 | z16 | z16 || z24 | z18 ||[M:4/2] z8 E,6 E,2 | E,4 E,4 F,8 | %57
w: ||||||||Pro- pter|Da- vid ser-|
 E,8 (G,6 A,2 | B,8) E,8 | B,12 G,4 | B,8 B,8- | B,8 z8 | z16 | z8 z4 E,4- | E,2 E,2 E,4 E,4 C,4 | %65
w: vum tu\- *|* um,|non a-|ver- tas|||fa\-|* ci- em Chri- sti|
 (E,8 D,8) | !fermata!G,16 || z24 | z18 ||[M:4/2] B,8 A,4 B,4 | G,6 G,2 G,4 G,4- | %71
w: tu\- *|i.|||Si- cu- sto-|di- e- rint fi\-|
 G,2 ^F,2 G,4 C,8 | G,8 C8 | G,8 A,4 B,4 | (G,8 F,8) | B,,8 B,8 | B,4 G,4 C6 C2 | G,4 _A,4 G,8 | %78
w: * li- i tu-|i te-|sta- men- tum|me\- *|um, et|te- sti- mo- ni-|a me- a|
 G,8 D,8 | z16 | D,8 E,4 E,4 | D,8 !fermata!G,16 || z24 | z18 ||[M:4/2] z16 | z16 | z16 | %87
w: haec, quae||do- ce- bo|e- os.||||||
 F,8 F,4 D,4 | E,8 B,,8 | B,8 C6 C2 | C4 G,4 B,4 B,4 | A,8 G,4 G,4 | E,6 E,2 E,4 B,,4 | %93
w: E- le- git|e- am|in ha- bi-|ta- ti- o- nem|si- bi, in|ha- bi- ta- ti-|
 (C,2 D,2 E,2 F,2 G,8- | G,8) G,8 | D,8 !fermata!G,16 || z24 | z18 ||[M:4/2] G,6 G,2 G,4 C,4- | %99
w: o\- * * * *|* nem|si- bi.|||Vi- du- am e\-|
 C,4 G,4 z8 | E,4 E,4 E,8 | B,,16 | B,4 B,4 B,8 | F,16 | z16 |[M:3/2] F,6 F,2 C,4 | D,8 D,4 z4 | %107
w: * ius|be- ne- di-|cens|be- ne- di-|cam:||pau- pe- res|e- ius|
 z4 G,2 G,2 G,4 E,4 | G,4 F,4 E,8 | E,2 E,2 E,8 G,4 | D,6 D,2 G,16 | z24 | z18 ||[M:4/2] z16 | %114
w: sa- tu- ra- bo|pa- ni- bus,|sa- tu- ra- bo|pa- ni- bus.||||
 z8 B,,8 | E,4 G,4 F,8 | B,,4 B,8 B,4 | C8 B,8- | B,8 z8 | z16 | z16 | z4 D,4 G,4 G,2 F,2 | %122
w: Il-|luc pro- du-|cam cor- nu|Da- vid,||||pa- ra- vi lu-|
 (E,8 F,8) | B,,4 E,8 G,4 | D,8 !fermata!G,16 || z24 | z18 ||[M:4/2] B,,12 B,,4 | B,,16 | %129
w: cer\- *|nam Chri- sto|me- o.|||Glo- ri-|a|
 E,8 B,,8 | E,4 E,8 G,4 | F,4 F,4 G,4 B,4 | F,16 | z8 B,,8 | B,,8 (E,6 F,2 | G,6 A,2 B,4) B,4 | %136
w: Pa- tri,|et Fi- li-|o, et Fi- li-|o,|et|Spi- ri\- *|* * * tu-|
 G,8 D,8 | !fermata!G,16 || z24 | z18 |] %140
w: i san-|cto.|||

